X: 330
T: Bulgareasca
R: bulgar
O:
Q: 1/4=160
B: German Goldenshteyn "Shpilt klezmorimlach klingen zoln di gesalach" New York 2003 v.3 #30
Z: 2013 John Chambers <jc:trillian.mit.edu>
M: 2/4
L: 1/8
K: Em
B,EG |\
B4 | A>G FG | E4- | EEGB | e4 | d>c Bc | A4- | A3A |
f3e | ^d2c2 | B2A2 | AGFG | FGAB | (3(BA)G (3(AG)F | E4- | E :|
|: EGB |\
e4 | ^defe | ^d4- | dBcB | Bc2^d | e2^dc | B4- | BEF^G |
A4- | ABc^d | e4 | (~^dc) BA | GA2B | (3(BA)G (3(AG)F | E4- | E :|
